exported-svg/thumbs-up.svg

<svg height="24" viewBox="0 0 24 24" width="24" xmlns="http://www.w3.org/2000/svg"><path d="m7.17506346 10 3.86803074-8.70306923c.0802507-.18056401.2593114-.29693077.4569058-.29693077 1.9329966 0 3.5 1.56700338 3.5 3.5v3.5l5.1543381.00003206c.7334397-.00830581 1.4335248.30589984 1.9148232.85939292.4812983.55349308.6952469 1.29042622.5850626 2.01635602l-1.3798761 8.9991871c-.1869177 1.2325566-1.2533366 2.1390611-2.4943478 2.1253192h-11.28c-.00384382 0-.00767751 0-.01150061-.0002873h-2.98849939c-1.38071187 0-2.5-1.1192881-2.5-2.5v-7c0-1.3807119 1.11928813-2.5 2.5-2.5zm-.17506346 1h-2.5c-.82842712 0-1.5.6715729-1.5 1.5v7c0 .8284271.67157288 1.5 1.5 1.5h2.5zm1 10.0002559h10.7855872c.7480201.0082641 1.3879117-.5356728 1.5001889-1.2760369l1.3798858-8.9992511c.066042-.4351085-.0623272-.87726835-.3511062-1.2093642s-.7088301-.52061924-1.1545557-.5156037h-5.66c-.2761424 0-.5-.22385763-.5-.5v-4c0-1.27362681-.9524017-2.32480829-2.1838626-2.48020192l-3.8161374 8.58630912z"/></svg>

<?xml version="1.0" encoding="UTF-8"?>
<svg width="24px" height="24px" viewBox="0 0 24 24" version="1.1" xmlns="http://www.w3.org/2000/svg" xmlns:xlink="http://www.w3.org/1999/xlink">
    <!-- Generator: Sketch 55.2 (78181) - https://sketchapp.com -->
    <title>thumbs-up</title>
    <desc>Created with Sketch.</desc>
    <g id="thumbs-up" stroke="none" stroke-width="1" fill="none" fill-rule="evenodd">
        <path d="M7.17506346,10 L11.0430942,1.29693077 C11.1233449,1.11636676 11.3024056,1 11.5,1 C13.4329966,1 15,2.56700338 15,4.5 L15,8 L20.1543381,8.00003206 C20.8877778,7.99172625 21.5878629,8.3059319 22.0691613,8.85942498 C22.5504596,9.41291806 22.7644082,10.1498512 22.6542239,10.875781 L21.2743478,19.8749681 C21.0874301,21.1075247 20.0210112,22.0140292 18.78,22.0002873 L7.5,22.0002873 C7.49615618,22.0002873 7.49232249,22.0002873 7.48849939,22 L4.5,22 C3.11928813,22 2,20.8807119 2,19.5 L2,12.5 C2,11.1192881 3.11928813,10 4.5,10 L7.17506346,10 Z M7,11 L4.5,11 C3.67157288,11 3,11.6715729 3,12.5 L3,19.5 C3,20.3284271 3.67157288,21 4.5,21 L7,21 L7,11 Z M8,21.0002559 L18.7855872,21.0002559 C19.5336073,21.00852 20.1734989,20.4645831 20.2857761,19.724219 L21.6656619,10.7249679 C21.7317039,10.2898594 21.6033347,9.84769955 21.3145557,9.5156037 C21.0257767,9.18350785 20.6057256,8.99498446 20.16,9 L14.5,9 C14.2238576,9 14,8.77614237 14,8.5 L14,4.5 C14,3.22637319 13.0475983,2.17519171 11.8161374,2.01979808 L8,10.6061072 L8,21.0002559 Z" id="Shape" fill="#000000" fill-rule="nonzero"></path>
    </g>
</svg>
